!!!COM: Frank Martin
!!!OTL: [T543_Mai-w11p29h17m4-h18m2]
**kern	**kern	**dynam	**kern	**dynam	**kern	**dynam
*grp:A	*grp:A	*grp:A	*grp:A	*grp:A	*grp:B	*grp:B
*part3	*part3	*part3	*part2	*part2	*part1	*part1
*staff4	*staff3	*	*staff2	*	*staff1	*
*I"Piano	*	*	*I"Violoncello	*	*I"Violin	*
*I'Pno.	*	*	*I'Vc.	*	*I'Vln.	*
!!pagebreak:original
*clefF4	*clefG2	*	*clefF4	*	*clefG2	*
*k[f#c#]	*k[f#c#]	*	*k[f#c#]	*	*k[f#c#]	*
*D:	*D:	*	*D:	*	*D:	*
*M4/4	*M4/4	*	*M4/4	*	*M4/4	*
*	*	*	*	*	*Xtuplet	*
!	!	!	!	!	!LO:TX:t=[half]=108	!
!	!LO:TX:t=[half]=108	!LO:DY:ed=brack	!	!LO:DY:ed=brack	!LO:TX:a:i:t=[sotto voce]	!LO:DY:ed=brack
8BB'L 8F#	8B'L 8d 8f#	ppp	(8F##X'L	ppp	12eeL	pp
.	.	.	.	.	12ff#	.
8BB'J 8F#	8B'J 8d 8f#	.	8F'J)	.	.	.
.	.	.	.	.	12eeJ	.
8BB' 8F#	8B' 8d 8f#	.	8G#X'	.	12eeL	.
.	.	.	.	.	12cc#	.
8r'	8r'	.	8r'	.	.	.
.	.	.	.	.	12aJ	.
8BB' 8F#	8c#' 8d 8f#	.	8A#X'	.	12cc#L	.
.	.	.	.	.	12dd	.
8r	8r	.	8r'	.	.	.
.	.	.	.	.	12eeJ	.
=1	=1	=1	=1	=1	=1	=1
8GGGn'	8d' 8f#	.	8B'	.	12ff#L	.
.	.	.	.	.	12gg	.
8r	8r	.	8r	.	.	.
.	.	.	.	.	12ff#J	.
8D'L 8G	8c#'L 8d 8f#	.	(8A#X'L	.	12eeL	.
.	.	.	.	.	12ff#	.
8D'J 8G	8c#'J 8d 8f#	.	8A#'J)	.	.	.
.	.	.	.	.	12eeJ	.
8D' 8G	8B' 8d 8f#	.	8B'	.	6.dd	.
8r'	8r	.	8r	.	.	.
=2	=2	=2	=2	=2	=2	=2
8D'L 8G	8c#'L 8d 8f#	.	(8A#X'L	.	12ff#L	.
.	.	.	.	.	12gg	.
8D'J 8G	8c#'J 8d 8f#	.	8A#'J)	.	.	.
.	.	.	.	.	12ff#J	.
8D' 8G	8B' 8d 8f#	.	8B'	.	12ff#L	.
.	.	.	.	.	12dd	.
8r'	8r	.	8r'	.	.	.
.	.	.	.	.	12bJ	.
8D' 8G	8c#' 8d 8f#	.	8A#'	.	12cc#L	.
.	.	.	.	.	12dd	.
8r	8r'	.	8r'	.	.	.
.	.	.	.	.	12eeJ	.
=3	=3	=3	=3	=3	=3	=3
8D' 8G	8B' 8d 8f#	.	8B'	.	12ff#L	.
.	.	.	.	.	12gg	.
8r	8r'	.	8r	.	.	.
.	.	.	.	.	12ff#J	.
8DDD'	4r	.	(16GLL	>	12eeL	.
.	.	.	16G#X	.	.	.
.	.	.	.	.	12ff#	.
8r	.	.	16A	.	.	.
.	.	.	.	.	12eeJ	.
.	.	.	16A#XJJ	.	.	.
8GGG'	8B' 8d 8f#	.	8B')	.	6dd	.
8r	8r	.	8r	]	.	.
.	.	.	.	.	12ff#	.
=4	=4	=4	=4	=4	=4	=4
8D'L 8G	8c#'L 8d 8f#	.	(8A#X'L	.	12eeL	.
.	.	.	.	.	12ff#	.
8D'J 8G	8c#'J 8d 8f#	.	8A#'J)	.	.	.
.	.	.	.	.	12eeJ	.
8D' 8G	8B' 8d 8f#	.	8B'	.	12eeL	.
.	.	.	.	.	12cc#	.
8r'	8r	.	8r'	.	.	.
.	.	.	.	.	12aJ	.
8D' 8G	8c#' 8d 8f#	.	8c#'	.	12cc#L	.
.	.	.	.	.	12dd	.
8r	8r'	.	8r'	.	.	.
.	.	.	.	.	12eeJ	.
!!linebreak:original
=5	=5	=5	=5	=5	=5	=5
(4EE'^^	2B^^ 2d 2f#	.	8d'	.	12ff#L	.
.	.	.	.	.	12gg	.
.	.	.	8r	.	.	.
.	.	.	.	.	12ff#J	.
4BB'	.	.	(8c#'L	.	12bbL	.
.	.	.	.	.	12ff#	.
.	.	.	8c#'J)	.	.	.
.	.	.	.	.	12eeJ	.
4G'	4B^^ 4d 4g	.	8d'	.	6dd	.
.	.	.	8r	.	.	.
.	.	.	.	.	12ee	.
=6	=6	=6	=6	=6	=6	=6
4BB')	4d^^ 4g 4b	.	(8c#'L	.	12ff#L	.
.	.	.	.	.	12gg	.
.	.	.	8c#'J)	.	.	.
.	.	.	.	.	12ff#J	.
(4EE'^^	4d^^ 4f# 4a	.	8d'	.	12ff#L	.
.	.	.	.	.	12dd	.
.	.	.	8r	.	.	.
.	.	.	.	.	12bJ	.
4BB'	[4c#^^ [4d [4f#	.	8c#'	.	12cc#L	.
.	.	.	.	.	12dd	.
.	.	.	8r	.	.	.
.	.	.	.	.	12eeJ	.
=7	=7	=7	=7	=7	=7	=7
4G#X'	4c#] 4d] 4f#]	.	8d'	.	12ff#L	.
.	.	.	.	.	12gg	.
.	.	.	8r	.	.	.
.	.	.	.	.	12ff#J	.
4BB')	2B^^ 2d 2g#X	.	(16A#XLL	.	12bbL	.
.	.	.	16B	.	.	.
.	.	.	.	.	12ff#	.
.	.	.	16B#X	.	.	.
.	.	.	.	.	12eeJ	.
.	.	.	16c#JJ	.	.	.
(4EE'^^	.	.	8d')	.	6dd	.
.	.	.	8r	.	.	.
.	.	.	.	.	12ff#	.
=8	=8	=8	=8	=8	=8	=8
4BB'	4d^^ 4gn 4b	.	(8B'L	.	12eeL	.
.	.	.	.	.	12ff#	.
.	.	.	8B'J)	.	.	.
.	.	.	.	.	12eeJ	.
4F#'	4c#^^ 4f# 4a	.	8c#'	.	12eeL	.
.	.	.	.	.	12cc#	.
.	.	.	8r	.	.	.
.	.	.	.	.	12aJ	.
4BB')	4B^^ 4d 4f#	.	8d'	.	12cc#L	.
.	.	.	.	.	12dd	.
.	.	.	8r	.	.	.
.	.	.	.	.	12eeJ	.
*	*	*	*clefC4	*	*	*
!!LO:REH:t=18
=9	=9	=9	=9	=9	=9	=9
!	!	!LO:DY:t=meno %s	!	!LO:DY:t=meno %s	!	!LO:DY:t=meno %s
4CC#'^^	4B' 4g#X	p	(4.e	p	12bbL	p
.	.	.	.	.	12bb	.
.	.	.	.	.	12bbJ	.
4GGG#X'	8A'L 8f#	.	.	.	6bb	.
.	8A'J 8f#	.	8d)	.	.	.
.	.	.	.	.	12ccc#	.
4CC#'^^	4B' 4g#	.	([4e	.	6ddd	.
.	.	.	.	.	12fff#	.
=10	=10	=10	=10	=10	=10	=10
!	!	!LO:HP:t=poco a poco %s	!	!LO:HP:t=poco a poco %s	!	!LO:HP:t=poco a poco %s
4GGG#X'	8c#'L 8a	<	8eL]	<	12bbL	<
.	.	.	.	.	12bb	.
.	8c#'J 8a	.	8f#J)	.	.	.
.	.	.	.	.	12bbJ	.
4CC#'^^	4d' 4b	.	(4.gn	.	6ddd	.
.	.	.	.	.	12fff#	.
4GGG#'	4c#' 4a	.	.	.	12eeeL	.
.	.	.	.	.	12ccc#	.
.	.	.	8f#)	.	.	.
.	.	.	.	.	12aaJ	.
=	=	=	=	=	=	=
*-	*-	*-	*-	*-	*-	*-
!!!system-decoration: s1,s2[({(s3,s4)})]
